X: 1
T: Eileen O'Callaghan's
M: 4/4
L: 1/8
R: reel
K: Gmaj
|G2 BG DGBA|GABd cAFA|G~B3 dcBc|defd cAFA|
|G2 BG DGBA|GABd cAFA|G~B3 d~B3|defd cAFA||
|dggf g2 fg|ad (3ddd adfe|dggf (3gag fe|defd cAFA|
|dggf g2 fg|abag fgaf|d~g3 b~g3|defd cAFA||
